src/img/icons/avatar.svg

<svg fill="none" height="64" viewBox="0 0 64 64" width="64" xmlns="http://www.w3.org/2000/svg" xmlns:xlink="http://www.w3.org/1999/xlink"><clipPath id="a"><path d="m0 0h64v64h-64z"/></clipPath><g clip-path="url(#a)"><path d="m0 0h64v64h-64z" fill="#fff"/><path d="m0 0h64v64h-64z" fill="#a6a6a6"/><path d="m33 33c6.5625 0 12-5.3438 12-12 0-6.5625-5.4375-12-12-12-6.6562 0-12 5.4375-12 12 0 6.6562 5.3438 12 12 12zm8.3438 3h-1.5938c-2.0625 1.0312-4.3125 1.5-6.75 1.5s-4.7812-.4688-6.8438-1.5h-1.5937c-6.9375 0-12.5625 5.7188-12.5625 12.6562v3.8438c0 2.5312 1.9688 4.5 4.5 4.5h33c2.4375 0 4.5-1.9688 4.5-4.5v-3.8438c0-6.9374-5.7188-12.6562-12.6562-12.6562z" fill="#808080"/></g></svg>

<svg width="64" height="64" viewBox="0 0 64 64" fill="none" xmlns="http://www.w3.org/2000/svg">
<g clip-path="url(#clip0_302_1881)">
<rect width="64" height="64" fill="white"/>
<rect width="64" height="64" fill="#A6A6A6"/>
<path d="M33 33C39.5625 33 45 27.6562 45 21C45 14.4375 39.5625 9 33 9C26.3438 9 21 14.4375 21 21C21 27.6562 26.3438 33 33 33ZM41.3438 36H39.75C37.6875 37.0312 35.4375 37.5 33 37.5C30.5625 37.5 28.2188 37.0312 26.1562 36H24.5625C17.625 36 12 41.7188 12 48.6562V52.5C12 55.0312 13.9688 57 16.5 57H49.5C51.9375 57 54 55.0312 54 52.5V48.6562C54 41.7188 48.2812 36 41.3438 36Z" fill="#808080"/>
</g>
<defs>
<clipPath id="clip0_302_1881">
<rect width="64" height="64" fill="white"/>
</clipPath>
</defs>
</svg>
